X:253
T:The Whirling Dervish
C:Jansen Wendell 
M:C
K:Bm
"Bm"b2 fe fBBA|"A"(Bc)cB AFFE| "G"FBBA Bcde | "F#m" (3fgf ec ef a2|
"Bm"b2 fe fBBA|"A"(Bc)cB AFFE| "G"FBBA Bcde | "F#m" (3fgf ec "Bm"cB B z:|
|:A|"Bm" FBBA Bcde | "F#m(A)"(3fgf ec acbB | "Bm"FBBA Bcde|"F#m"(3fgf ec "Bm"cBBA|
"Bm" FBBA Bcde | "F#m(A)"(3fgf ec efa2|"Bm"bBdf "A"eaed|"F#m"cABc "Bm"B2 :|
